img/icon-ruble.svg

<svg width="15" height="15" viewBox="0 0 15 15" fill="none" xmlns="http://www.w3.org/2000/svg">
<path d="M8.7207 9.73722H0.972124V7.27273H8.63548C9.21313 7.27273 9.68661 7.1875 10.0559 7.01705C10.4252 6.84659 10.6975 6.60511 10.8727 6.29261C11.0479 5.98011 11.1355 5.6108 11.1355 5.18466C11.1355 4.76799 11.0479 4.39157 10.8727 4.0554C10.6975 3.71922 10.43 3.4517 10.0701 3.25284C9.71029 3.05398 9.26048 2.95455 8.7207 2.95455H6.09286V15H3.03888V0.454545H8.7207C9.87127 0.454545 10.8561 0.660511 11.6752 1.07244C12.4991 1.47964 13.1288 2.03835 13.5645 2.74858C14.0001 3.45407 14.2155 4.25426 14.2108 5.14915C14.2155 6.08665 13.9953 6.89867 13.5502 7.58523C13.1052 8.27178 12.4707 8.80208 11.6468 9.17614C10.823 9.55019 9.8476 9.73722 8.7207 9.73722ZM9.26758 10.6747V13.1392H0.972124V10.6747H9.26758Z" fill="black"/>
</svg>

<svg width="15" height="15" fill="none" xmlns="http://www.w3.org/2000/svg"><path d="M8.72 9.737H.973V7.273h7.663c.578 0 1.052-.085 1.42-.256.37-.17.643-.412.818-.724.175-.313.263-.682.263-1.108 0-.417-.088-.793-.263-1.13a1.928 1.928 0 00-.803-.802c-.36-.199-.81-.298-1.35-.298H6.094V15H3.039V.455H8.72c1.15 0 2.135.206 2.954.617.824.408 1.454.966 1.89 1.677.435.705.65 1.505.646 2.4.005.938-.216 1.75-.66 2.436-.446.687-1.08 1.217-1.904 1.591-.824.374-1.8.561-2.926.561zm.548.938v2.464H.972v-2.464h8.296z" fill="#000"/></svg>
